icons/global/server-settings/members.svg

<svg width="24" height="24" viewBox="0 0 24 24" fill="none" xmlns="http://www.w3.org/2000/svg">
<path d="M14 8.00598C14 10.211 12.206 12.006 10 12.006C7.795 12.006 6 10.211 6 8.00598C6 5.80098 7.794 4.00598 10 4.00598C12.206 4.00598 14 5.80098 14 8.00598ZM2 19.006C2 15.473 5.29 13.006 10 13.006C14.711 13.006 18 15.473 18 19.006V20.006H2V19.006Z" fill="black"/>
<path d="M14 8.00598C14 10.211 12.206 12.006 10 12.006C7.795 12.006 6 10.211 6 8.00598C6 5.80098 7.794 4.00598 10 4.00598C12.206 4.00598 14 5.80098 14 8.00598ZM2 19.006C2 15.473 5.29 13.006 10 13.006C14.711 13.006 18 15.473 18 19.006V20.006H2V19.006ZM20 20.006H22V19.006C22 16.443 20.27 14.441 17.521 13.536C19.062 14.913 20.001 16.806 20.001 19.006V20.006H20ZM14.883 11.908C15.7675 11.7065 16.5575 11.2108 17.1237 10.502C17.69 9.79316 17.9989 8.91318 18 8.00598C17.999 7.03138 17.6427 6.09058 16.9978 5.3598C16.353 4.62901 15.4639 4.15835 14.497 4.03598C15.4671 5.13109 16.0019 6.54398 16 8.00698C16.0016 9.39469 15.52 10.7397 14.638 11.811C14.72 11.843 14.802 11.875 14.883 11.909V11.908Z" fill="black"/>
</svg>

<svg xmlns="http://www.w3.org/2000/svg" viewBox="0 0 24 24">
  <path fill="B9BBBE" d="M14 8.006c0 2.205-1.794 4-4 4-2.205 0-4-1.795-4-4s1.794-4 4-4 4 1.795 4 4Zm-12 11c0-3.533 3.29-6 8-6 4.711 0 8 2.467 8 6v1H2v-1Z"/>
  <path fill="B9BBBE" d="M14 8.006c0 2.205-1.794 4-4 4-2.205 0-4-1.795-4-4s1.794-4 4-4 4 1.795 4 4Zm-12 11c0-3.533 3.29-6 8-6 4.711 0 8 2.467 8 6v1H2v-1ZM20 20.006h2v-1c0-2.563-1.73-4.565-4.479-5.47 1.541 1.377 2.48 3.27 2.48 5.47v1ZM14.883 11.908A4.007 4.007 0 0 0 18 8.006a4.006 4.006 0 0 0-3.503-3.97A5.977 5.977 0 0 1 16 8.007a5.974 5.974 0 0 1-1.362 3.804c.082.032.164.064.245.098Z"/>
</svg>
